X: 39
T: Praeludia organi op. 5 – Maestoso
C: Franciszek Walczyński
%%abc-version 2.0
%%abcx-abcm2ps-target-version 5.9.1 (29 Sep 2008)
%%abc-creator hum2abc beta
%%abcx-conversion-date 2021/10/04 07:38:41
%%abc-edited-by Andrzej Borzym
%%abc-edited-by Krzysztof Stępień
%%abcx-initial-encoding-date 2021-07-26
%%humdrum-veritas 1214483476
%%humdrum-veritas-data 2942138665
%%linebreak <none>
%%barnumbers 0
L: 1/4
M: C
N: Derived from pl-kozmzk--mzk-m-159--028_walczynski-franciszek--praeludia-organi-op-5-maestoso.krn
Q: "28. Maestoso."
%%staves {1 2}
V: 1 clef=treble
V: 2 clef=bass
K: F#
[V:1] AF/E/DB & AF/E/DB | 
[V:2] A,F,/E,/D,B, & A,F,/E,/D,B, | 
[V:1] AF/E/DG & AF/E/DG | 
[V:2] A,F,/E,/D,G, & A,F,/E,/D,G, | 
[V:1] FGFE & FD2C | 
[V:2] A,B,!accent!A,3/G,/- & D,G,,A,,2 | 
[V:1] D3x & D3x | 
[V:2] G,F,/E,/F,z & D,3z | 
[V:1] cA/G/Fd & cA/G/Fd | 
[V:2] CA,/G,/F,D & CA,/G,/F,D | 
[V:1] cA/G/FB & cA/G/FB | 
[V:2] CA,/G,/F,B, & CA,/G,/F,B, | 
[V:1] A3G- & z^^C/D/E2 | 
[V:2] A,4- & zA,,/^B,,/^^C,2 | 
[V:1] GF/E/Fz & D3x | 
[V:2] A,3z & D,3x | 
[V:1] ^^FG/A/BG & ^^FG/A/BG | 
[V:2] ^^F,G,/A,/B,G, & ^^F,G,/A,/B,G, | 
[V:1] dc/B/AD & dc/B/AD | 
[V:2] DC/B,/A,B, & DC/B,/A,G, | 
[V:1] F2EF & D3^^C | 
[V:2] A,^^G,A,3/^G,/- & A,^^G,A,A,, | 
[V:1] !fermata!D4 & D4 |]  
[V:2] G,F,/E,/!fermata!F,2 & !fermata!D,4 |]  


